X: 37243
T: Sixpence, The
R: reel
M: 4/4
K: Gmajor
(Bd)|(ef)ed B2(AB)|d2d2 E2(GA)|B2dB (Ac)BA|G2 A2 G2:|
(GA)|B3d g2(fg)|(ag)fg e2dc|Bdef g3f|e4 d2:|

